X:21
T:Reels 1 - Danza de Albrellos
T:Rond de Saint Julien de Concelles
K:Am
M:2/2
"Am"ce ed/c/ Bc/d/ "Em"cA | "Am"Ae ed/c/ "Em"Bc "Am"A2 | "Am"ce ed/c/ Bc/d/ "Em"cA | "Am"Ae ed/c/ "Em"Bc "Am"A2 |
"C"AB cd cB "Em"ee | "C"AB cd/c/ "Bm"Bc "Am"A2 | "C"AB cd cB "Em"ee | "C"AB cd/c/ "Bm"Bc "Am"A2 |
"G"Bd d"C"c/B/ AB/c/ "D"BG | "G"Gd dc/B/ "D"AB "G"G2 | "G"Bd d"C"c/B/ AB/c/ "D"BG | "G"Gd dc/B/ "D"AB "G"G2 |
"C"GA B"Am"c BA "D"dd | "C"GA "Am"Bc/B/ "D"AB "G"G2 | "C"GA B"Am"c BA "D"dd | "C"GA "Am"Bc/B/ "D"AB "G"G2 :||
T:Danza de Albrellos
K:D
"D"Affe "G"dc/d/ "A"ee | "Rhythm out"Aggf ef/g/ a2 | "D"Affe "G"dc/d/ "A"ee | "Rhythm out (all out)"Aggf ed/c/ d2 :|
"D"A a2 "G"a b/a/g/f/ "Em"ag | "A"e/f/g ef/g/ ag fe | "D"A a2 "G"a b/a/g/f/ "Em"ag | "A"e/f/g e/f/g ec "G (D)"d2 :|
%%newpage

